packages/ffe-icons/icons/filled/md/video_chat.svg

<svg xmlns="http://www.w3.org/2000/svg" height="24" viewBox="0 -960 960 960" width="24"><path d="M326.154-410.001h227.692q15.461 0 25.807-10.346 10.346-10.346 10.346-25.807v-83.077l63 63q4.616 4.615 10.039 2.307 5.423-2.307 5.423-8.538v-175.076q0-6.231-5.423-8.538-5.423-2.308-10.039 2.307l-63 63v-83.077q0-15.461-10.346-25.807-10.346-10.346-25.807-10.346H326.154q-15.461 0-25.807 10.346-10.346 10.346-10.346 25.807v227.692q0 15.461 10.346 25.807 10.346 10.346 25.807 10.346Zm-84.615 150-80.076 80.076q-17.077 17.076-39.269 7.73-22.193-9.346-22.193-33.653v-581.843q0-30.308 21-51.308t51.308-21h615.382q30.308 0 51.308 21t21 51.308v455.382q0 30.308-21 51.308t-51.308 21H241.539Z"/></svg>

<svg xmlns="http://www.w3.org/2000/svg" height="24" viewBox="0 -960 960 960" width="24"><path d="M326.15-410h227.7q15.46 0 25.8-10.35Q590-430.69 590-446.15v-83.08l63 63q4.61 4.61 10.04 2.31 5.42-2.31 5.42-8.54v-175.08q0-6.23-5.42-8.54-5.43-2.3-10.04 2.31l-63 63v-83.08q0-15.46-10.35-25.8Q569.31-710 553.85-710h-227.7q-15.46 0-25.8 10.35Q290-689.31 290-673.85v227.7q0 15.46 10.35 25.8Q310.69-410 326.15-410Zm-84.61 150-80.08 80.07q-17.07 17.08-39.27 7.74Q100-181.54 100-205.85v-581.84Q100-818 121-839q21-21 51.31-21h615.38Q818-860 839-839q21 21 21 51.31v455.38Q860-302 839-281q-21 21-51.31 21H241.54Z"/></svg>
